spyder/images/light/debug_selection.svg

<?xml version="1.0" encoding="UTF-8" standalone="no"?>
<svg
   width="24"
   height="24"
   viewBox="0 0 24 24"
   fill="none"
   version="1.1"
   id="svg144"
   sodipodi:docname="debug_selection.svg"
   inkscape:version="1.2.2 (b0a8486541, 2022-12-01)"
   xmlns:inkscape="http://www.inkscape.org/namespaces/inkscape"
   xmlns:sodipodi="http://sodipodi.sourceforge.net/DTD/sodipodi-0.dtd"
   xmlns="http://www.w3.org/2000/svg"
   xmlns:svg="http://www.w3.org/2000/svg"
   xmlns:rdf="http://www.w3.org/1999/02/22-rdf-syntax-ns#"
   xmlns:cc="http://creativecommons.org/ns#"
   xmlns:dc="http://purl.org/dc/elements/1.1/">
  <metadata
     id="metadata150">
    <rdf:RDF>
      <cc:Work
         rdf:about="">
        <dc:format>image/svg+xml</dc:format>
        <dc:type
           rdf:resource="http://purl.org/dc/dcmitype/StillImage" />
        <dc:title />
      </cc:Work>
    </rdf:RDF>
  </metadata>
  <defs
     id="defs148" />
  <sodipodi:namedview
     pagecolor="#ffffff"
     bordercolor="#666666"
     borderopacity="1"
     objecttolerance="10"
     gridtolerance="10"
     guidetolerance="10"
     inkscape:pageopacity="0"
     inkscape:pageshadow="2"
     inkscape:window-width="1896"
     inkscape:window-height="572"
     id="namedview146"
     showgrid="false"
     inkscape:zoom="10.652867"
     inkscape:cx="14.362331"
     inkscape:cy="12.907323"
     inkscape:window-x="1930"
     inkscape:window-y="614"
     inkscape:window-maximized="0"
     inkscape:current-layer="svg144"
     inkscape:document-rotation="0"
     inkscape:showpageshadow="2"
     inkscape:pagecheckerboard="0"
     inkscape:deskcolor="#d1d1d1" />
  <path
     fill-rule="evenodd"
     clip-rule="evenodd"
     d="M 7.29289,17.7071 C 7.10536,17.5196 7,17.2652 7,17 V 5 C 7,4.73478 7.10536,4.48043 7.29289,4.29289 7.48043,4.10536 7.73478,4 8,4 h 2 V 2 H 7.5 C 6.95,2 6,2.45 6,3 6,2.45 5.05,2 4.5,2 H 2 V 4 H 4 C 4.26522,4 4.51957,4.10536 4.70711,4.29289 4.89464,4.48043 5,4.73478 5,5 V 17 C 5,17.2652 4.89464,17.5196 4.70711,17.7071 4.51957,17.8946 4.26522,18 4,18 H 2 v 2 H 4.5 C 5.05,20 6,19.55 6,19 c 0,0.55 0.95,1 1.5,1 H 9 V 18 H 8 C 7.73478,18 7.48043,17.8946 7.29289,17.7071 Z"
     fill="#37414f"
     id="path140" />
  <path
     id="path12"
     style="fill:#1a72bb;stroke-width:0.999994"
     d="m 19.713997,15 h -1.428454 v 7 h 1.428454 z m 2.999953,0 h -1.428554 v 7 h 1.428554 z m -10.833,0 5.237931,3.499999 L 11.88095,22 Z"
     sodipodi:nodetypes="cccccccccccccc" />
</svg>

<svg xmlns="http://www.w3.org/2000/svg" width="24" height="24" fill="none"><path fill="#37414f" fill-rule="evenodd" d="M7.293 17.707A1 1 0 0 1 7 17V5a1 1 0 0 1 1-1h2V2H7.5C6.95 2 6 2.45 6 3c0-.55-.95-1-1.5-1H2v2h2a1 1 0 0 1 1 1v12a1 1 0 0 1-1 1H2v2h2.5c.55 0 1.5-.45 1.5-1 0 .55.95 1 1.5 1H9v-2H8a1 1 0 0 1-.707-.293Z" clip-rule="evenodd"/><path d="M19.714 15h-1.428v7h1.428zm3 0h-1.429v7h1.429zM11.88 15l5.238 3.5L11.88 22Z" style="fill:#1a72bb;stroke-width:.999994"/></svg>
